Newaita-dark/.places-blue/16/folder-wine.svg

<svg xmlns="http://www.w3.org/2000/svg" xmlns:xlink="http://www.w3.org/1999/xlink" width="16px" height="16px" viewBox="0 0 16 16" version="1.1">
<defs>
<linearGradient id="linear0" gradientUnits="userSpaceOnUse" x1="254" y1="233.5" x2="254" y2="254.667007" gradientTransform="matrix(0.0312525,0,0,0.0312525,0,6.7195)">
<stop offset="0" style="stop-color:rgb(0%,0%,0%);stop-opacity:0.275;"/>
<stop offset="1" style="stop-color:rgb(0%,0%,0%);stop-opacity:0;"/>
</linearGradient>
<radialGradient id="radial0" gradientUnits="userSpaceOnUse" cx="450.908997" cy="189.578995" fx="450.908997" fy="189.578995" r="21.167" gradientTransform="matrix(0,-0.039065,-0.07032,0,27.057501,31.797501)">
<stop offset="0" style="stop-color:rgb(0%,0%,0%);stop-opacity:0.314;"/>
<stop offset="0.222" style="stop-color:rgb(0%,0%,0%);stop-opacity:0.275;"/>
<stop offset="1" style="stop-color:rgb(0%,0%,0%);stop-opacity:0;"/>
</radialGradient>
<radialGradient id="radial1" gradientUnits="userSpaceOnUse" cx="450.908997" cy="189.578995" fx="450.908997" fy="189.578995" r="21.167" gradientTransform="matrix(0,0.039065,0.07032,0,-11.181,-3.76375)">
<stop offset="0" style="stop-color:rgb(0%,0%,0%);stop-opacity:0.314;"/>
<stop offset="0.222" style="stop-color:rgb(0%,0%,0%);stop-opacity:0.275;"/>
<stop offset="1" style="stop-color:rgb(0%,0%,0%);stop-opacity:0;"/>
</radialGradient>
<radialGradient id="radial2" gradientUnits="userSpaceOnUse" cx="450.908997" cy="189.578995" fx="450.908997" fy="189.578995" r="21.167" gradientTransform="matrix(0,-0.039065,0.07032,0,-11.181,31.797501)">
<stop offset="0" style="stop-color:rgb(0%,0%,0%);stop-opacity:0.314;"/>
<stop offset="0.222" style="stop-color:rgb(0%,0%,0%);stop-opacity:0.275;"/>
<stop offset="1" style="stop-color:rgb(0%,0%,0%);stop-opacity:0;"/>
</radialGradient>
<radialGradient id="radial3" gradientUnits="userSpaceOnUse" cx="450.908997" cy="189.578995" fx="450.908997" fy="189.578995" r="21.167" gradientTransform="matrix(0,0.039065,-0.07032,0,27.057501,-3.76375)">
<stop offset="0" style="stop-color:rgb(0%,0%,0%);stop-opacity:0.314;"/>
<stop offset="0.222" style="stop-color:rgb(0%,0%,0%);stop-opacity:0.275;"/>
<stop offset="1" style="stop-color:rgb(0%,0%,0%);stop-opacity:0;"/>
</radialGradient>
<linearGradient id="linear1" gradientUnits="userSpaceOnUse" x1="254" y1="-147.5" x2="254" y2="-31.083" gradientTransform="matrix(0.0312525,0,0,0.0312525,0,6.7195)">
<stop offset="0" style="stop-color:rgb(64.313728%,64.313728%,64.313728%);stop-opacity:0;"/>
<stop offset="1" style="stop-color:rgb(100%,100%,100%);stop-opacity:0.196;"/>
</linearGradient>
<linearGradient id="linear2" gradientUnits="userSpaceOnUse" x1="254" y1="233.5" x2="254" y2="-105.167" gradientTransform="matrix(0.0312525,0,0,0.0312525,0,6.7195)">
<stop offset="0" style="stop-color:rgb(34.509805%,34.509805%,34.509805%);stop-opacity:0;"/>
<stop offset="1" style="stop-color:rgb(98.039216%,98.039216%,98.039216%);stop-opacity:0.196;"/>
</linearGradient>
<linearGradient id="linear3" gradientUnits="userSpaceOnUse" x1="254" y1="-147.5" x2="254" y2="233.5" gradientTransform="matrix(0.0312525,0,0,0.0312525,0,6.7195)">
<stop offset="0" style="stop-color:rgb(64.313728%,64.313728%,64.313728%);stop-opacity:0;"/>
<stop offset="1" style="stop-color:rgb(100%,100%,100%);stop-opacity:0.196;"/>
</linearGradient>
</defs>
<g id="surface1">
<path style=" stroke:none;fill-rule:nonzero;fill:url(#linear0);" d="M 1.984375 14.015625 L 13.890625 14.015625 L 13.890625 14.679688 L 1.984375 14.679688 Z M 1.984375 14.015625 "/>
<path style=" stroke:none;fill-rule:nonzero;fill:url(#radial0);" d="M 13.890625 14.015625 L 15.214844 14.015625 L 15.214844 13.355469 L 13.890625 13.355469 Z M 13.890625 14.015625 "/>
<path style=" stroke:none;fill-rule:nonzero;fill:url(#radial1);" d="M 1.984375 14.015625 L 0.660156 14.015625 L 0.660156 14.679688 L 1.984375 14.679688 Z M 1.984375 14.015625 "/>
<path style=" stroke:none;fill-rule:nonzero;fill:url(#radial2);" d="M 1.984375 14.015625 L 0.660156 14.015625 L 0.660156 13.355469 L 1.984375 13.355469 Z M 1.984375 14.015625 "/>
<path style=" stroke:none;fill-rule:nonzero;fill:url(#radial3);" d="M 13.890625 14.015625 L 15.214844 14.015625 L 15.214844 14.679688 L 13.890625 14.679688 Z M 13.890625 14.015625 "/>
<path style=" stroke:none;fill-rule:nonzero;fill:rgb(11.764706%,53.333336%,89.803922%);fill-opacity:1;" d="M 3.640625 2.109375 L 14.386719 2.109375 C 14.5625 2.109375 14.730469 2.179688 14.855469 2.304688 C 14.980469 2.425781 15.050781 2.597656 15.050781 2.773438 L 15.050781 5.253906 C 15.050781 5.617188 14.753906 5.914062 14.386719 5.914062 L 3.640625 5.914062 C 3.273438 5.914062 2.976562 5.617188 2.976562 5.253906 L 2.976562 2.773438 C 2.976562 2.40625 3.273438 2.109375 3.640625 2.109375 Z M 3.640625 2.109375 "/>
<path style=" stroke:none;fill-rule:nonzero;fill:url(#linear1);" d="M 3.640625 2.109375 L 14.386719 2.109375 C 14.5625 2.109375 14.730469 2.179688 14.855469 2.304688 C 14.980469 2.425781 15.050781 2.597656 15.050781 2.773438 L 15.050781 5.253906 C 15.050781 5.617188 14.753906 5.914062 14.386719 5.914062 L 3.640625 5.914062 C 3.273438 5.914062 2.976562 5.617188 2.976562 5.253906 L 2.976562 2.773438 C 2.976562 2.40625 3.273438 2.109375 3.640625 2.109375 Z M 3.640625 2.109375 "/>
<path style=" stroke:none;fill-rule:nonzero;fill:rgb(90.196079%,90.196079%,90.196079%);fill-opacity:0.588;" d="M 3.640625 2.109375 C 3.464844 2.109375 3.292969 2.179688 3.167969 2.300781 C 3.046875 2.425781 2.976562 2.597656 2.976562 2.773438 L 2.976562 2.851562 C 2.976562 2.679688 3.046875 2.507812 3.171875 2.386719 C 3.292969 2.261719 3.464844 2.191406 3.640625 2.191406 L 14.386719 2.191406 C 14.5625 2.191406 14.730469 2.261719 14.855469 2.386719 C 14.980469 2.507812 15.050781 2.679688 15.050781 2.851562 L 15.050781 2.773438 C 15.050781 2.597656 14.980469 2.425781 14.855469 2.300781 C 14.730469 2.179688 14.5625 2.109375 14.386719 2.109375 Z M 3.640625 2.109375 "/>
<path style=" stroke:none;fill-rule:nonzero;fill:rgb(12.941177%,12.941177%,12.941177%);fill-opacity:1;" d="M 3.640625 2.0625 C 3.246094 2.0625 2.929688 2.378906 2.929688 2.773438 L 2.929688 5.253906 C 2.929688 5.441406 3.003906 5.621094 3.136719 5.753906 C 3.269531 5.886719 3.449219 5.960938 3.640625 5.960938 L 14.386719 5.960938 C 14.574219 5.960938 14.753906 5.886719 14.890625 5.753906 C 15.023438 5.621094 15.097656 5.441406 15.097656 5.253906 L 15.097656 2.773438 C 15.097656 2.378906 14.777344 2.0625 14.386719 2.0625 Z M 3.640625 2.15625 L 14.386719 2.15625 C 14.550781 2.15625 14.707031 2.21875 14.824219 2.335938 C 14.9375 2.449219 15.003906 2.609375 15.003906 2.769531 L 15.003906 5.253906 C 15.003906 5.414062 14.9375 5.570312 14.824219 5.6875 C 14.707031 5.800781 14.550781 5.867188 14.386719 5.867188 L 3.640625 5.867188 C 3.476562 5.867188 3.320312 5.800781 3.203125 5.6875 C 3.085938 5.570312 3.023438 5.414062 3.023438 5.253906 L 3.023438 2.773438 C 3.023438 2.609375 3.085938 2.453125 3.203125 2.335938 C 3.316406 2.21875 3.476562 2.15625 3.636719 2.15625 Z M 3.640625 2.15625 "/>
<path style=" stroke:none;fill-rule:nonzero;fill:rgb(25.882354%,64.705884%,96.078432%);fill-opacity:1;" d="M 1.324219 3.433594 C 1.148438 3.433594 0.980469 3.5 0.855469 3.625 C 0.730469 3.75 0.660156 3.917969 0.660156 4.09375 L 0.660156 13.355469 C 0.660156 13.53125 0.730469 13.699219 0.855469 13.824219 C 0.980469 13.949219 1.148438 14.015625 1.324219 14.015625 L 14.554688 14.015625 C 14.730469 14.015625 14.898438 13.949219 15.023438 13.824219 C 15.144531 13.699219 15.214844 13.53125 15.214844 13.355469 L 15.214844 5.085938 L 6.285156 5.085938 C 6.109375 5.085938 5.941406 5.015625 5.816406 4.894531 C 5.691406 4.769531 5.621094 4.601562 5.621094 4.425781 L 5.621094 3.433594 Z M 1.324219 3.433594 "/>
<path style=" stroke:none;fill-rule:nonzero;fill:url(#linear2);" d="M 1.324219 3.433594 C 1.148438 3.433594 0.980469 3.5 0.855469 3.625 C 0.730469 3.75 0.660156 3.917969 0.660156 4.09375 L 0.660156 13.355469 C 0.660156 13.53125 0.730469 13.699219 0.855469 13.824219 C 0.980469 13.949219 1.148438 14.015625 1.324219 14.015625 L 14.554688 14.015625 C 14.730469 14.015625 14.898438 13.949219 15.023438 13.824219 C 15.144531 13.699219 15.214844 13.53125 15.214844 13.355469 L 15.214844 5.085938 L 6.285156 5.085938 C 6.109375 5.085938 5.941406 5.015625 5.816406 4.894531 C 5.691406 4.769531 5.621094 4.601562 5.621094 4.425781 L 5.621094 3.433594 Z M 1.324219 3.433594 "/>
<path style=" stroke:none;fill-rule:nonzero;fill:rgb(0%,0%,0%);fill-opacity:0.196;" d="M 1.324219 14.015625 C 1.148438 14.015625 0.980469 13.949219 0.855469 13.824219 C 0.730469 13.699219 0.660156 13.53125 0.660156 13.355469 L 0.660156 13.273438 C 0.660156 13.449219 0.730469 13.617188 0.855469 13.742188 C 0.980469 13.863281 1.148438 13.933594 1.324219 13.933594 L 14.554688 13.933594 C 14.730469 13.933594 14.898438 13.863281 15.023438 13.742188 C 15.144531 13.617188 15.214844 13.449219 15.214844 13.273438 L 15.214844 13.355469 C 15.214844 13.53125 15.144531 13.699219 15.023438 13.824219 C 14.898438 13.949219 14.730469 14.015625 14.554688 14.015625 Z M 1.324219 14.015625 "/>
<path style=" stroke:none;fill-rule:nonzero;fill:rgb(90.196079%,90.196079%,90.196079%);fill-opacity:0.937;" d="M 1.324219 3.433594 C 1.148438 3.433594 0.980469 3.5 0.855469 3.625 C 0.730469 3.75 0.660156 3.917969 0.660156 4.09375 L 0.660156 4.175781 C 0.660156 4 0.730469 3.832031 0.855469 3.707031 C 0.980469 3.585938 1.148438 3.515625 1.324219 3.515625 L 5.625 3.515625 L 5.625 3.433594 Z M 6.242188 5.128906 C 6.066406 5.128906 5.898438 5.058594 5.773438 4.933594 C 5.652344 4.808594 5.582031 4.640625 5.582031 4.464844 L 5.582031 4.382812 C 5.582031 4.558594 5.652344 4.726562 5.773438 4.851562 C 5.898438 4.976562 6.066406 5.046875 6.242188 5.046875 L 15.214844 5.046875 L 15.214844 5.128906 Z M 6.242188 5.128906 "/>
<path style=" stroke:none;fill-rule:nonzero;fill:rgb(12.941177%,12.941177%,12.941177%);fill-opacity:1;" d="M 1.324219 3.386719 C 1.136719 3.386719 0.953125 3.460938 0.820312 3.59375 C 0.6875 3.726562 0.613281 3.90625 0.613281 4.09375 L 0.613281 13.355469 C 0.613281 13.542969 0.6875 13.722656 0.820312 13.855469 C 0.953125 13.988281 1.136719 14.0625 1.324219 14.0625 L 14.554688 14.0625 C 14.742188 14.0625 14.921875 13.988281 15.054688 13.855469 C 15.1875 13.722656 15.261719 13.542969 15.261719 13.355469 L 15.261719 4.992188 L 6.285156 4.992188 C 6.121094 4.992188 5.964844 4.929688 5.847656 4.8125 C 5.734375 4.699219 5.667969 4.542969 5.671875 4.378906 L 5.671875 3.386719 Z M 1.324219 3.480469 L 5.578125 3.480469 L 5.578125 4.378906 C 5.574219 4.566406 5.652344 4.746094 5.785156 4.878906 C 5.917969 5.011719 6.097656 5.085938 6.285156 5.085938 L 15.167969 5.085938 L 15.167969 13.355469 C 15.167969 13.519531 15.105469 13.675781 14.988281 13.789062 C 14.875 13.90625 14.71875 13.96875 14.554688 13.96875 L 1.324219 13.96875 C 1.160156 13.96875 1.003906 13.90625 0.886719 13.789062 C 0.773438 13.675781 0.707031 13.519531 0.707031 13.355469 L 0.707031 4.09375 C 0.707031 3.929688 0.773438 3.773438 0.886719 3.660156 C 1.003906 3.542969 1.160156 3.480469 1.324219 3.480469 Z M 1.324219 3.480469 "/>
<path style=" stroke:none;fill-rule:nonzero;fill:rgb(11.764706%,53.333336%,89.803922%);fill-opacity:1;" d="M 5.953125 6.738281 C 5.867188 6.738281 5.78125 6.773438 5.71875 6.835938 C 5.65625 6.898438 5.621094 6.984375 5.621094 7.070312 L 5.621094 8.394531 C 5.621094 8.578125 5.769531 8.722656 5.953125 8.722656 L 7.277344 8.722656 C 7.363281 8.726562 7.449219 8.691406 7.511719 8.628906 C 7.574219 8.566406 7.609375 8.480469 7.609375 8.394531 L 7.609375 7.070312 C 7.609375 6.984375 7.574219 6.898438 7.511719 6.835938 C 7.449219 6.773438 7.363281 6.738281 7.277344 6.742188 Z M 8.597656 6.738281 C 8.417969 6.738281 8.269531 6.886719 8.269531 7.070312 L 8.269531 8.394531 C 8.269531 8.578125 8.417969 8.722656 8.597656 8.722656 L 9.921875 8.722656 C 10.011719 8.726562 10.09375 8.691406 10.15625 8.628906 C 10.21875 8.566406 10.253906 8.480469 10.253906 8.394531 L 10.253906 7.070312 C 10.253906 6.984375 10.21875 6.898438 10.15625 6.835938 C 10.09375 6.773438 10.011719 6.738281 9.921875 6.742188 Z M 5.953125 9.386719 C 5.867188 9.386719 5.78125 9.421875 5.71875 9.484375 C 5.65625 9.546875 5.621094 9.628906 5.621094 9.71875 L 5.621094 11.039062 C 5.621094 11.222656 5.769531 11.371094 5.953125 11.371094 L 7.277344 11.371094 C 7.363281 11.371094 7.449219 11.335938 7.511719 11.273438 C 7.574219 11.210938 7.609375 11.128906 7.609375 11.039062 L 7.609375 9.71875 C 7.609375 9.535156 7.460938 9.386719 7.277344 9.386719 Z M 8.597656 9.386719 C 8.417969 9.386719 8.269531 9.535156 8.269531 9.71875 L 8.269531 11.039062 C 8.269531 11.222656 8.417969 11.371094 8.597656 11.371094 L 9.921875 11.371094 C 10.011719 11.371094 10.09375 11.335938 10.15625 11.273438 C 10.21875 11.210938 10.253906 11.128906 10.253906 11.039062 L 10.253906 9.71875 C 10.253906 9.535156 10.105469 9.386719 9.921875 9.386719 Z M 8.597656 9.386719 "/>
<path style=" stroke:none;fill-rule:nonzero;fill:url(#linear3);" d="M 5.953125 6.738281 C 5.867188 6.738281 5.78125 6.773438 5.71875 6.835938 C 5.65625 6.898438 5.621094 6.984375 5.621094 7.070312 L 5.621094 8.394531 C 5.621094 8.578125 5.769531 8.722656 5.953125 8.722656 L 7.277344 8.722656 C 7.363281 8.726562 7.449219 8.691406 7.511719 8.628906 C 7.574219 8.566406 7.609375 8.480469 7.609375 8.394531 L 7.609375 7.070312 C 7.609375 6.984375 7.574219 6.898438 7.511719 6.835938 C 7.449219 6.773438 7.363281 6.738281 7.277344 6.742188 Z M 8.597656 6.738281 C 8.417969 6.738281 8.269531 6.886719 8.269531 7.070312 L 8.269531 8.394531 C 8.269531 8.578125 8.417969 8.722656 8.597656 8.722656 L 9.921875 8.722656 C 10.011719 8.726562 10.09375 8.691406 10.15625 8.628906 C 10.21875 8.566406 10.253906 8.480469 10.253906 8.394531 L 10.253906 7.070312 C 10.253906 6.984375 10.21875 6.898438 10.15625 6.835938 C 10.09375 6.773438 10.011719 6.738281 9.921875 6.742188 Z M 5.953125 9.386719 C 5.867188 9.386719 5.78125 9.421875 5.71875 9.484375 C 5.65625 9.546875 5.621094 9.628906 5.621094 9.71875 L 5.621094 11.039062 C 5.621094 11.222656 5.769531 11.371094 5.953125 11.371094 L 7.277344 11.371094 C 7.363281 11.371094 7.449219 11.335938 7.511719 11.273438 C 7.574219 11.210938 7.609375 11.128906 7.609375 11.039062 L 7.609375 9.71875 C 7.609375 9.535156 7.460938 9.386719 7.277344 9.386719 Z M 8.597656 9.386719 C 8.417969 9.386719 8.269531 9.535156 8.269531 9.71875 L 8.269531 11.039062 C 8.269531 11.222656 8.417969 11.371094 8.597656 11.371094 L 9.921875 11.371094 C 10.011719 11.371094 10.09375 11.335938 10.15625 11.273438 C 10.21875 11.210938 10.253906 11.128906 10.253906 11.039062 L 10.253906 9.71875 C 10.253906 9.535156 10.105469 9.386719 9.921875 9.386719 Z M 8.597656 9.386719 "/>
<path style=" stroke:none;fill-rule:nonzero;fill:rgb(12.941177%,12.941177%,12.941177%);fill-opacity:1;" d="M 5.953125 6.691406 C 5.855469 6.691406 5.757812 6.734375 5.6875 6.804688 C 5.617188 6.875 5.574219 6.972656 5.578125 7.070312 L 5.578125 8.394531 C 5.578125 8.601562 5.746094 8.769531 5.953125 8.769531 L 7.277344 8.769531 C 7.484375 8.769531 7.652344 8.601562 7.652344 8.394531 L 7.652344 7.070312 C 7.65625 6.972656 7.613281 6.875 7.542969 6.804688 C 7.472656 6.734375 7.375 6.691406 7.277344 6.691406 Z M 8.597656 6.691406 C 8.390625 6.691406 8.222656 6.863281 8.222656 7.070312 L 8.222656 8.394531 C 8.222656 8.601562 8.390625 8.769531 8.597656 8.769531 L 9.921875 8.769531 C 10.128906 8.769531 10.300781 8.601562 10.300781 8.394531 L 10.300781 7.070312 C 10.300781 6.863281 10.128906 6.691406 9.921875 6.691406 Z M 5.953125 6.785156 L 7.277344 6.785156 C 7.351562 6.785156 7.425781 6.816406 7.476562 6.871094 C 7.53125 6.921875 7.5625 6.996094 7.558594 7.070312 L 7.558594 8.394531 C 7.5625 8.46875 7.53125 8.542969 7.476562 8.59375 C 7.425781 8.648438 7.351562 8.679688 7.277344 8.679688 L 5.953125 8.679688 C 5.878906 8.679688 5.804688 8.648438 5.753906 8.59375 C 5.699219 8.542969 5.667969 8.46875 5.671875 8.394531 L 5.671875 7.070312 C 5.667969 6.996094 5.699219 6.921875 5.753906 6.871094 C 5.804688 6.816406 5.878906 6.785156 5.953125 6.785156 Z M 8.597656 6.785156 L 9.921875 6.785156 C 10 6.785156 10.070312 6.816406 10.125 6.871094 C 10.175781 6.921875 10.207031 6.996094 10.207031 7.070312 L 10.207031 8.394531 C 10.207031 8.46875 10.175781 8.542969 10.125 8.59375 C 10.070312 8.648438 10 8.679688 9.921875 8.679688 L 8.597656 8.679688 C 8.523438 8.679688 8.453125 8.648438 8.398438 8.59375 C 8.34375 8.542969 8.316406 8.46875 8.316406 8.394531 L 8.316406 7.070312 C 8.316406 6.996094 8.34375 6.921875 8.398438 6.871094 C 8.453125 6.816406 8.523438 6.785156 8.597656 6.785156 Z M 5.953125 9.339844 C 5.746094 9.339844 5.578125 9.507812 5.578125 9.71875 L 5.578125 11.039062 C 5.574219 11.140625 5.617188 11.238281 5.6875 11.308594 C 5.757812 11.378906 5.855469 11.417969 5.953125 11.417969 L 7.277344 11.417969 C 7.375 11.417969 7.472656 11.378906 7.542969 11.308594 C 7.613281 11.238281 7.65625 11.140625 7.652344 11.039062 L 7.652344 9.71875 C 7.652344 9.507812 7.484375 9.339844 7.277344 9.339844 Z M 8.597656 9.339844 C 8.390625 9.339844 8.222656 9.507812 8.222656 9.71875 L 8.222656 11.039062 C 8.222656 11.25 8.390625 11.417969 8.597656 11.417969 L 9.921875 11.417969 C 10.128906 11.417969 10.300781 11.25 10.300781 11.039062 L 10.300781 9.71875 C 10.300781 9.507812 10.128906 9.339844 9.921875 9.339844 Z M 5.953125 9.433594 L 7.277344 9.433594 C 7.433594 9.433594 7.558594 9.558594 7.558594 9.71875 L 7.558594 11.039062 C 7.5625 11.117188 7.53125 11.1875 7.476562 11.242188 C 7.425781 11.296875 7.351562 11.324219 7.277344 11.324219 L 5.953125 11.324219 C 5.878906 11.324219 5.804688 11.296875 5.753906 11.242188 C 5.699219 11.1875 5.667969 11.117188 5.671875 11.039062 L 5.671875 9.71875 C 5.671875 9.558594 5.796875 9.433594 5.953125 9.433594 Z M 8.597656 9.433594 L 9.921875 9.433594 C 10.082031 9.433594 10.207031 9.558594 10.207031 9.71875 L 10.207031 11.039062 C 10.207031 11.117188 10.175781 11.1875 10.125 11.242188 C 10.070312 11.296875 10 11.324219 9.921875 11.324219 L 8.597656 11.324219 C 8.523438 11.324219 8.453125 11.296875 8.398438 11.242188 C 8.34375 11.1875 8.316406 11.117188 8.316406 11.039062 L 8.316406 9.71875 C 8.316406 9.558594 8.441406 9.433594 8.597656 9.433594 Z M 8.597656 9.433594 "/>
</g>
</svg>

<svg xmlns="http://www.w3.org/2000/svg" width="16pt" height="16pt" viewBox="0 0 16 16"><defs><linearGradient id="a" gradientUnits="userSpaceOnUse" x1="254" y1="233.5" x2="254" y2="254.667" gradientTransform="matrix(.03125 0 0 .03125 0 6.72)"><stop offset="0" stop-opacity=".275"/><stop offset="1" stop-opacity="0"/></linearGradient><radialGradient id="b" gradientUnits="userSpaceOnUse" cx="450.909" cy="189.579" fx="450.909" fy="189.579" r="21.167" gradientTransform="matrix(0 -.03907 -.07032 0 27.058 31.798)"><stop offset="0" stop-opacity=".314"/><stop offset=".222" stop-opacity=".275"/><stop offset="1" stop-opacity="0"/></radialGradient><radialGradient id="c" gradientUnits="userSpaceOnUse" cx="450.909" cy="189.579" fx="450.909" fy="189.579" r="21.167" gradientTransform="matrix(0 .03907 .07032 0 -11.181 -3.764)"><stop offset="0" stop-opacity=".314"/><stop offset=".222" stop-opacity=".275"/><stop offset="1" stop-opacity="0"/></radialGradient><radialGradient id="d" gradientUnits="userSpaceOnUse" cx="450.909" cy="189.579" fx="450.909" fy="189.579" r="21.167" gradientTransform="matrix(0 -.03907 .07032 0 -11.181 31.798)"><stop offset="0" stop-opacity=".314"/><stop offset=".222" stop-opacity=".275"/><stop offset="1" stop-opacity="0"/></radialGradient><radialGradient id="e" gradientUnits="userSpaceOnUse" cx="450.909" cy="189.579" fx="450.909" fy="189.579" r="21.167" gradientTransform="matrix(0 .03907 -.07032 0 27.058 -3.764)"><stop offset="0" stop-opacity=".314"/><stop offset=".222" stop-opacity=".275"/><stop offset="1" stop-opacity="0"/></radialGradient><linearGradient id="f" gradientUnits="userSpaceOnUse" x1="254" y1="-147.5" x2="254" y2="-31.083" gradientTransform="matrix(.03125 0 0 .03125 0 6.72)"><stop offset="0" stop-color="#a4a4a4" stop-opacity="0"/><stop offset="1" stop-color="#fff" stop-opacity=".196"/></linearGradient><linearGradient id="g" gradientUnits="userSpaceOnUse" x1="254" y1="233.5" x2="254" y2="-105.167" gradientTransform="matrix(.03125 0 0 .03125 0 6.72)"><stop offset="0" stop-color="#585858" stop-opacity="0"/><stop offset="1" stop-color="#fafafa" stop-opacity=".196"/></linearGradient><linearGradient id="h" gradientUnits="userSpaceOnUse" x1="254" y1="-147.5" x2="254" y2="233.5" gradientTransform="matrix(.03125 0 0 .03125 0 6.72)"><stop offset="0" stop-color="#a4a4a4" stop-opacity="0"/><stop offset="1" stop-color="#fff" stop-opacity=".196"/></linearGradient></defs><path d="M1.984 14.016h11.907v.664H1.984zm0 0" fill="url(#a)"/><path d="M13.89 14.016h1.325v-.66H13.89zm0 0" fill="url(#b)"/><path d="M1.984 14.016H.66v.664h1.324zm0 0" fill="url(#c)"/><path d="M1.984 14.016H.66v-.66h1.324zm0 0" fill="url(#d)"/><path d="M13.89 14.016h1.325v.664H13.89zm0 0" fill="url(#e)"/><path d="M3.637 2.11h10.75c.367 0 .664.296.664.66v2.48a.664.664 0 0 1-.664.664H3.637a.663.663 0 0 1-.66-.664V2.77c0-.364.296-.66.66-.66zm0 0" fill="#1e88e5"/><path d="M3.637 2.11h10.75c.367 0 .664.296.664.66v2.48a.664.664 0 0 1-.664.664H3.637a.663.663 0 0 1-.66-.664V2.77c0-.364.296-.66.66-.66zm0 0" fill="url(#f)"/><path d="M3.637 2.11a.662.662 0 0 0-.66.66v.085c0-.367.296-.664.66-.664h10.75c.367 0 .664.297.664.664V2.77a.663.663 0 0 0-.664-.66zm0 0" fill="#e6e6e6" fill-opacity=".588"/><path d="M3.637 2.063a.707.707 0 0 0-.707.707v2.48c0 .395.316.71.707.71h10.75c.394 0 .71-.315.71-.71V2.77a.708.708 0 0 0-.71-.708zm0 .093h10.75c.343 0 .617.274.617.614v2.48a.614.614 0 0 1-.617.617H3.637a.613.613 0 0 1-.614-.617V2.77c0-.34.274-.614.614-.614zm0 0" fill="#212121"/><path d="M1.324 3.434a.66.66 0 0 0-.664.66v9.261c0 .368.297.66.664.66h13.23c.368 0 .66-.292.66-.66v-8.27H6.286a.66.66 0 0 1-.664-.66v-.991zm0 0" fill="#42a5f5"/><path d="M1.324 3.434a.66.66 0 0 0-.664.66v9.261c0 .368.297.66.664.66h13.23c.368 0 .66-.292.66-.66v-8.27H6.286a.66.66 0 0 1-.664-.66v-.991zm0 0" fill="url(#g)"/><path d="M1.324 14.016a.66.66 0 0 1-.664-.66v-.083c0 .368.297.66.664.66h13.23c.368 0 .66-.292.66-.66v.082c0 .368-.292.66-.66.66zm0 0" fill-opacity=".196"/><path d="M1.324 3.434a.66.66 0 0 0-.664.66v.082a.66.66 0 0 1 .664-.66h4.297v-.082zm0 0M6.242 5.129a.66.66 0 0 1-.66-.664v-.082a.66.66 0 0 0 .66.664h8.973v.082zm0 0" fill="#e6e6e6" fill-opacity=".937"/><path d="M1.324 3.387a.708.708 0 0 0-.71.707v9.261c0 .391.316.707.71.707h13.23c.391 0 .708-.316.708-.707V4.992H6.285a.613.613 0 0 1-.617-.613v-.992zm0 .093h4.25v.899c0 .39.32.707.711.707h8.883v8.27c0 .34-.273.613-.613.613H1.325a.613.613 0 0 1-.618-.614V4.094c0-.34.273-.614.617-.614zm0 0" fill="#212121"/><path d="M5.953 6.738a.332.332 0 0 0-.332.332v1.325c0 .183.149.332.332.332h1.324a.332.332 0 0 0 .332-.332V7.07a.332.332 0 0 0-.332-.332zm2.649 0a.332.332 0 0 0-.332.332v1.325c0 .183.148.332.332.332h1.32a.332.332 0 0 0 .332-.332V7.07a.332.332 0 0 0-.332-.332zM5.953 9.387a.332.332 0 0 0-.332.332v1.32c0 .184.149.332.332.332h1.324a.332.332 0 0 0 .332-.332V9.72a.332.332 0 0 0-.332-.332zm2.649 0a.332.332 0 0 0-.332.332v1.32c0 .184.148.332.332.332h1.32a.332.332 0 0 0 .332-.332V9.72a.332.332 0 0 0-.332-.332zm0 0" fill="#1e88e5"/><path d="M5.953 6.738a.332.332 0 0 0-.332.332v1.325c0 .183.149.332.332.332h1.324a.332.332 0 0 0 .332-.332V7.07a.332.332 0 0 0-.332-.332zm2.649 0a.332.332 0 0 0-.332.332v1.325c0 .183.148.332.332.332h1.32a.332.332 0 0 0 .332-.332V7.07a.332.332 0 0 0-.332-.332zM5.953 9.387a.332.332 0 0 0-.332.332v1.32c0 .184.149.332.332.332h1.324a.332.332 0 0 0 .332-.332V9.72a.332.332 0 0 0-.332-.332zm2.649 0a.332.332 0 0 0-.332.332v1.32c0 .184.148.332.332.332h1.32a.332.332 0 0 0 .332-.332V9.72a.332.332 0 0 0-.332-.332zm0 0" fill="url(#h)"/><path d="M5.953 6.691a.382.382 0 0 0-.379.38v1.324c0 .207.172.378.38.378h1.323a.382.382 0 0 0 .38-.378V7.07a.382.382 0 0 0-.38-.379zm2.649 0a.38.38 0 0 0-.38.38v1.324a.38.38 0 0 0 .38.378h1.32a.38.38 0 0 0 .379-.378V7.07a.38.38 0 0 0-.38-.379zm-2.649.098h1.324c.157 0 .285.125.285.281v1.325a.287.287 0 0 1-.285.285H5.953a.287.287 0 0 1-.285-.285V7.07c0-.156.129-.28.285-.28zm2.649 0h1.32c.16 0 .285.125.285.281v1.325a.284.284 0 0 1-.285.285h-1.32a.284.284 0 0 1-.286-.285V7.07c0-.156.125-.28.286-.28zM5.953 9.34a.38.38 0 0 0-.379.38v1.32c0 .211.172.379.38.379h1.323a.38.38 0 0 0 .38-.379V9.72a.38.38 0 0 0-.38-.38zm2.649 0a.377.377 0 0 0-.38.38v1.32c0 .211.169.379.38.379h1.32c.21 0 .379-.168.379-.379V9.72a.377.377 0 0 0-.38-.38zm-2.649.095h1.324c.157 0 .285.125.285.285v1.32c0 .16-.128.285-.285.285H5.953a.284.284 0 0 1-.285-.285V9.72c0-.16.129-.285.285-.285zm2.649 0h1.32c.16 0 .285.125.285.285v1.32c0 .16-.125.285-.285.285h-1.32a.282.282 0 0 1-.286-.285V9.72c0-.16.125-.285.286-.285zm0 0" fill="#212121"/></svg>
